X:1
T:Waltham (Albert), 87.87.77
T:Waltham (Albert), 87.87.77
T:Heinrich Albert, 1642
T:Public Domain Courtesy of the Cyber Hymnal™
C:Heinrich Albert, 1642
Z:Public Domain
Z:Courtesy of the Cyber Hymnal™
%%score ( 1 2 ) ( 3 4 )
L:1/8
Q:1/4=110
M:4/4
K:Ab
V:1 treble 
V:2 treble 
V:3 bass 
V:4 bass 
V:1
 [EA]2 [EB]2 (cd) [Ee]2 | A2 [EG]2 [=DF]2 E2 | [DF]2 [EG]2 [EA]2 [FB]2 | ([Ec][Fd]) [DB]2 [CA]4 | %4
 [Ec]2 [=Dc]2 [EB]2 [Gc]2 | [Fd]2 c2 [GB]4 | [CF]2 [EG]2 [EA]2 [FB]2 | ([Ec][Fd]) [DB]2 [CA]4 |] %8
V:2
 x4 A2 x2 | (EF) x3 E2 x | x8 | x8 | x8 | x2 (EF) x4 | x8 | x8 |] %8
V:3
 [A,C]2 [G,B,]2 (A,B,) [C,C]2 | ([C,C][=D,B,]) [E,B,]2 [B,,A,]2 [E,G,]2 | %2
 [B,,B,]2 [D,B,]2 [C,A,]2 [D,A,]2 | [E,A,]2 [E,G,]2 [A,,A,]4 | A,2 [F,A,]2 [G,B,]2 [E,G,]2 | %5
 ([F,A,][G,B,]) (C=D) [E,E]4 | [E,A,]2 [D,B,]2 [C,A,]2 [D,A,]2 | [E,A,]2 [E,G,]2 [A,,A,]4 |] %8
V:4
 x4 F,2 x2 | x8 | x8 | x8 | A,2 x6 | x2 A,2 x4 | x8 | x8 |] %8

